icons/extension-cancel.svg

<svg fill="none" stroke="currentColor" stroke-linecap="round" stroke-linejoin="round" stroke-width="1.5" viewBox="0 0 24 24"><path d="M19.5 11.625a3.39 3.39 0 0 0-3.375-3.375h-1.5A1.13 1.13 0 0 1 13.5 7.125v-1.5a3.39 3.39 0 0 0-3.375-3.375H8.25m11.25 9c0-4.937-4.063-9-9-9H5.625c-.621 0-1.125.504-1.125 1.125v10.796"/><path d="M3.815 15.295h15.57v6.418H3.815z" transform="matrix(.96339 0 0 .7694 .825 5.007)"/><path d="M19.5 11.425v2.746"/></svg>

<?xml version="1.0" encoding="UTF-8" standalone="no"?>
<!DOCTYPE svg PUBLIC "-//W3C//DTD SVG 1.1//EN" "http://www.w3.org/Graphics/SVG/1.1/DTD/svg11.dtd">
<svg width="100%" height="100%" viewBox="0 0 24 24" version="1.1" xmlns="http://www.w3.org/2000/svg" xmlns:xlink="http://www.w3.org/1999/xlink" xml:space="preserve" xmlns:serif="http://www.serif.com/" style="fill-rule:evenodd;clip-rule:evenodd;stroke-linecap:round;stroke-linejoin:round;">
    <g>
        <path d="M19.5,11.625C19.5,9.774 17.976,8.25 16.125,8.25L14.625,8.25C14.008,8.25 13.5,7.742 13.5,7.125L13.5,5.625C13.5,3.774 11.976,2.25 10.125,2.25L8.25,2.25M19.5,11.25C19.5,6.313 15.437,2.25 10.5,2.25L5.625,2.25C5.004,2.25 4.5,2.754 4.5,3.375L4.5,14.171" style="fill:none;fill-rule:nonzero;stroke:white;stroke-width:1.5px;"/>
        <g transform="matrix(0.96339,0,0,0.769396,0.824945,5.00704)">
            <rect x="3.815" y="15.295" width="15.57" height="6.418" style="fill:white;stroke:white;stroke-width:1.72px;stroke-miterlimit:1.5;"/>
        </g>
        <path d="M19.5,11.425L19.5,14.171" style="fill:none;stroke:white;stroke-width:1.5px;stroke-miterlimit:1.5;"/>
    </g>
</svg>
